frontend/public/svg/files/file-vector.svg

<svg width="142" height="175" viewBox="0 0 142 175" fill="none" xmlns="http://www.w3.org/2000/svg">
<g clip-path="url(#clip0)">
<path d="M78.5218 174.07C62.9141 173.757 47.3032 173.56 31.7007 173.072C25.8783 172.89 20.0834 171.717 14.263 171.562C7.29005 171.38 2.19497 163.694 1.98953 158.452C1.81888 154.091 1.66989 149.728 1.60688 145.365C1.19339 116.507 0.799553 87.6503 0.425442 58.7939C0.288266 47.111 0.371701 35.4321 0.326414 23.7513C0.312631 20.1729 -0.194157 16.5722 1.00038 13.0707C1.28917 12.2233 1.49858 11.3483 1.79853 10.5049C3.87387 4.66945 7.93983 1.59852 14.2092 1.50466C19.8169 1.42153 25.4243 1.29397 31.0312 1.12201C36.5287 0.95596 42.0241 0.536058 47.5196 0.541309C61.4445 0.555092 75.3688 0.725524 89.293 0.878453C92.4263 0.912582 95.5584 1.25146 98.6898 1.22521C100.612 1.22297 102.456 1.97729 103.826 3.32529C113.812 12.199 123.803 21.0689 133.795 29.9352C134.634 30.6808 135.365 31.5499 136.224 32.2699C138.359 34.061 139.194 36.3719 139.275 39.0957C139.406 43.5798 139.738 48.0595 139.813 52.5436C140.101 69.7237 140.304 86.906 140.571 104.087C140.76 116.209 141.093 128.331 141.178 140.454C141.222 146.732 140.723 153.013 140.728 159.291C140.734 167.385 134.419 172.856 126.361 173.102C119.516 173.311 112.662 173.189 105.813 173.291C96.7168 173.422 87.6206 173.635 78.5251 173.812L78.5218 174.07ZM92.958 9.5913C91.5271 9.49088 90.5295 9.37011 89.5233 9.35764C71.6736 9.13317 53.8236 8.91632 35.9735 8.70675C33.0547 8.67131 30.0821 8.95281 27.2303 8.49075C23.2673 7.84885 19.4055 8.4559 15.4977 8.61539C12.617 8.73287 10.9361 10.1309 10.3381 12.9473C9.45209 17.1301 8.87123 21.3229 9.27094 25.6206C9.5302 28.4087 9.76641 31.2111 9.77298 34.0078C9.83992 62.7514 9.8816 91.4951 9.89781 120.239C9.90306 123.717 10.0671 127.196 10.0685 130.678C10.0685 137.747 9.97848 144.815 10.0028 151.883C9.97861 153.785 10.1399 155.684 10.4844 157.554C11.1506 160.844 13.7321 164.131 17.59 164.001C18.5909 163.967 19.599 164.242 20.6091 164.263C35.3157 164.536 50.0224 164.99 64.7296 164.994C82.0201 165 99.3113 164.605 116.603 164.404C119.294 164.372 121.996 164.542 124.684 164.428C129.457 164.226 131.872 161.723 131.804 156.957C131.624 144.394 131.356 131.833 131.121 119.271C131.117 119.047 131.093 118.823 131.085 118.599C130.657 107.388 130.052 96.1807 129.853 84.9665C129.64 72.9555 129.811 60.9394 129.815 48.9251V45.0748C128.627 45.0748 127.756 45.0663 126.886 45.0748C120.598 45.1437 114.309 45.2721 108.022 45.255C106.006 45.2765 103.994 45.059 102.03 44.6076C97.2104 43.4196 95.8209 41.5031 95.4665 36.5819C94.9946 29.987 94.438 23.398 93.8617 16.8116C93.6556 14.4829 93.2861 12.1721 92.958 9.58808V9.5913ZM125.151 35.6179L102.072 14.6846C103.295 22.6263 104.39 29.7273 105.494 36.8886L125.151 35.6179Z" fill="black"/>
<path d="M61.0338 97.1146C44.1455 100.782 33.9105 110.737 31.8417 128.725C31.9231 128.828 32.3472 129.329 32.7351 129.857C34.6339 132.443 34.5656 135.071 32.5493 137.55C30.2758 140.346 26.8096 141.066 24.1705 139.292C21.6396 137.59 20.8607 133.834 22.6072 130.844C23.381 129.519 24.5446 128.422 25.9413 126.723C26.2918 124.957 26.8084 122.549 27.2442 120.126C28.9441 110.675 33.9512 103.381 41.7223 97.8858C42.8124 97.1153 43.9362 96.3913 45.6229 95.2559C40.8658 95.2559 36.7316 95.1962 32.6026 95.3084C31.815 95.3294 31.007 95.9647 30.2785 96.4288C28.0377 97.8524 26.022 97.8149 24.4724 96.2509C23.7902 95.5716 23.3531 94.6855 23.2299 93.7312C23.1067 92.7762 23.3044 91.8075 23.7918 90.9779C24.9345 89.0089 27.7214 87.5793 29.4791 88.3525C30.5292 88.812 31.3167 89.8621 32.6951 91.0527L61.7255 89.2806C62.5538 86.2096 64.645 85.2198 67.5736 85.3426C69.1442 85.3353 70.7109 85.2014 72.2598 84.9422C74.8852 84.6225 76.9074 85.4403 78.1925 88.1582C81.843 87.9712 85.5237 87.769 89.2058 87.5977C95.2559 87.3155 101.314 87.1383 107.355 86.7209C108.826 86.6191 110.262 85.7902 111.683 85.2178C113.901 84.3239 115.756 84.4631 116.99 85.8033C117.672 86.4833 118.136 87.3516 118.322 88.2974C118.508 89.2425 118.408 90.2218 118.033 91.1098C117.019 93.7778 113.887 95.2519 111.45 93.8008C109.336 92.5419 107.212 92.5065 104.983 92.5537C100.388 92.6535 95.7974 92.8104 91.1125 92.9475C91.2982 93.3578 91.331 93.6374 91.4787 93.7266C101.536 99.8233 106.733 109.229 109.545 120.251C109.932 121.77 110.129 123.34 110.565 124.846C110.85 125.908 111.3 126.919 111.899 127.841C112.63 128.777 113.06 129.912 113.135 131.098C113.211 132.283 112.927 133.463 112.32 134.484C111.748 135.593 110.877 136.52 109.805 137.158C108.733 137.796 107.503 138.12 106.255 138.094C103.425 138.123 100.947 137.028 99.4506 134.47C98.0624 132.097 98.5068 129.767 99.8542 127.462C100.387 126.551 100.958 125.39 100.849 124.416C99.7748 114.783 96.2614 106.414 87.9365 100.718C85.4877 98.9478 82.6812 97.7342 79.7145 97.1612C76.7735 102.466 64.7657 102.294 61.0338 97.1146Z" fill="black"/>
</g>
<defs>
<clipPath id="clip0">
<rect width="141.113" height="174.586" fill="white" transform="translate(0.109375 0.137451)"/>
</clipPath>
</defs>
</svg>

<svg xmlns="http://www.w3.org/2000/svg" width="142" height="175" fill="none" viewBox="0 0 142 175"><g fill="#000" clip-path="url(#a)"><path d="M78.522 174.07c-15.608-.313-31.219-.51-46.821-.998-5.823-.182-11.618-1.355-17.438-1.51-6.973-.182-12.068-7.868-12.273-13.11-.171-4.361-.32-8.724-.383-13.087Q.987 102.078.425 58.794C.288 47.11.372 35.432.326 23.75c-.013-3.578-.52-7.179.674-10.68.29-.848.499-1.723.799-2.566 2.075-5.836 6.14-8.906 12.41-9a1063 1063 0 0 0 16.822-.383C36.53.956 42.024.536 47.52.542c13.924.013 27.849.184 41.773.336 3.133.035 6.265.373 9.397.347a7.3 7.3 0 0 1 5.136 2.1q14.98 13.311 29.969 26.61c.839.746 1.57 1.615 2.429 2.335 2.135 1.791 2.97 4.102 3.051 6.826.131 4.484.463 8.964.538 13.448.288 17.18.491 34.362.758 51.543.189 12.122.522 24.244.607 36.367.044 6.278-.455 12.559-.45 18.837.006 8.094-6.309 13.565-14.367 13.811-6.845.209-13.699.087-20.548.189-9.096.131-18.192.344-27.288.521zM92.958 9.591c-1.43-.1-2.428-.22-3.435-.233q-26.775-.338-53.55-.651c-2.918-.036-5.89.246-8.743-.216-3.963-.642-7.824-.035-11.732.124-2.881.118-4.562 1.516-5.16 4.332-.886 4.183-1.467 8.376-1.067 12.674.26 2.788.495 5.59.502 8.387q.1 43.115.125 86.231c.005 3.478.17 6.957.17 10.439 0 7.069-.09 14.137-.065 21.205a29.3 29.3 0 0 0 .481 5.671c.667 3.29 3.248 6.577 7.106 6.447 1-.034 2.009.241 3.02.262 14.706.273 29.412.727 44.12.731 17.29.006 34.581-.389 51.873-.59 2.691-.032 5.393.138 8.081.024 4.773-.202 7.188-2.705 7.12-7.471-.18-12.563-.448-25.124-.683-37.686-.004-.224-.028-.448-.036-.672-.428-11.211-1.033-22.418-1.232-33.633-.213-12.01-.042-24.027-.038-36.04v-3.851c-1.188 0-2.059-.009-2.929 0-6.288.069-12.577.197-18.864.18a25.5 25.5 0 0 1-5.992-.647c-4.82-1.188-6.21-3.105-6.564-8.026-.471-6.595-1.028-13.184-1.604-19.77-.206-2.33-.576-4.64-.904-7.224zm32.193 26.027-23.079-20.933 3.422 22.204z"/><path d="M61.034 97.115c-16.888 3.667-27.123 13.622-29.192 31.61.081.103.505.604.893 1.132 1.899 2.586 1.83 5.214-.186 7.693-2.273 2.796-5.74 3.516-8.378 1.742-2.531-1.702-3.31-5.458-1.564-8.448.774-1.325 1.938-2.422 3.334-4.121.35-1.766.867-4.174 1.303-6.597 1.7-9.451 6.707-16.745 14.478-22.24 1.09-.77 2.214-1.495 3.9-2.63-4.756 0-8.89-.06-13.02.052-.787.021-1.595.657-2.323 1.12-2.241 1.424-4.257 1.387-5.807-.177a4.34 4.34 0 0 1-.68-5.273c1.142-1.97 3.93-3.399 5.687-2.625 1.05.459 1.838 1.51 3.216 2.7l29.03-1.772c.829-3.071 2.92-4.061 5.849-3.938a29 29 0 0 0 4.686-.4c2.625-.32 4.647.497 5.932 3.215 3.651-.187 7.332-.389 11.014-.56 6.05-.282 12.108-.46 18.149-.877 1.471-.102 2.907-.93 4.328-1.503 2.218-.894 4.073-.755 5.307.585a4.84 4.84 0 0 1 1.043 5.307c-1.014 2.668-4.146 4.142-6.583 2.69-2.114-1.258-4.238-1.293-6.467-1.246-4.595.1-9.186.256-13.87.394.185.41.218.69.366.779 10.057 6.096 15.254 15.502 18.066 26.524.387 1.519.584 3.089 1.02 4.595a10.5 10.5 0 0 0 1.334 2.995 5.9 5.9 0 0 1 1.236 3.257 5.9 5.9 0 0 1-.815 3.386 6.67 6.67 0 0 1-6.065 3.61c-2.83.029-5.308-1.066-6.804-3.624-1.389-2.373-.944-4.703.403-7.008.533-.911 1.104-2.072.995-3.046-1.074-9.633-4.588-18.002-12.913-23.698a20.75 20.75 0 0 0-8.222-3.557c-2.94 5.305-14.948 5.133-18.68-.046"/></g><defs><clipPath id="a"><path fill="#fff" d="M.11.137h141.112v174.586H.11z"/></clipPath></defs></svg>
